assets/img/deezer.svg

<svg xmlns="http://www.w3.org/2000/svg" width="100" height="100" viewBox="0 0 100 100"><path d="M50 1.125C23.008 1.125 1.125 23.007 1.125 50S23.008 98.875 50 98.875 98.875 76.993 98.875 50 76.992 1.125 50 1.125zM26.8 70.373H13.49V66.34H26.8v4.033zm0-5.242H13.49v-4.034H26.8v4.036zm0-5.242H13.49V55.85H26.8v4.037zm0-5.246H13.49V50.61H26.8v4.033zm0-5.244H13.49v-4.033H26.8v4.033zm14.93 20.977H28.415V66.34H41.73v4.033zm0-5.242H28.415v-4.035H41.73v4.036zm0-5.243H28.415v-4.04H41.73v4.037zm14.926 10.486H43.344V66.34h13.313v4.033zm0-5.242H43.344V61.1h13.313v4.035zm0-5.243H43.344v-4.04h13.313v4.037zm0-5.245H43.344V50.61h13.313v4.033zm0-5.244H43.344V45.37h13.313V49.4zm0-5.244H43.344v-4.033h13.313v4.034zm0-5.242H43.344V34.88h13.313v4.034zM71.582 70.38H58.27v-4.04h13.313v4.033zm0-5.243H58.27v-4.035h13.313v4.036zm0-5.243H58.27V55.85h13.313v4.037zm0-5.246H58.27V50.61h13.313v4.033zm0-5.244H58.27V45.37h13.313v4.034zm14.928 20.97H73.197V66.34H86.51v4.033zm0-5.243H73.197v-4.034H86.51v4.036zm0-5.245H73.197V55.85H86.51v4.034zm0-5.243H73.197v-4.034H86.51v4.035zm0-5.244H73.197V45.36H86.51v4.036zm0-5.246H73.197V40.12H86.51v4.032zm0-5.245H73.197v-4.033H86.51v4.033zM73.197 33.66v-4.033H86.51v4.034H73.197z"/></svg>

<?xml version="1.0" encoding="utf-8"?>
<!-- Generator: Adobe Illustrator 16.0.0, SVG Export Plug-In . SVG Version: 6.00 Build 0)  -->
<!DOCTYPE svg PUBLIC "-//W3C//DTD SVG 1.1//EN" "http://www.w3.org/Graphics/SVG/1.1/DTD/svg11.dtd">
<svg version="1.1" id="Layer_3" xmlns="http://www.w3.org/2000/svg" xmlns:xlink="http://www.w3.org/1999/xlink" x="0px" y="0px"
	 width="100px" height="100px" viewBox="0 0 100 100" enable-background="new 0 0 100 100" xml:space="preserve">
<path d="M50,1.125C23.008,1.125,1.125,23.007,1.125,50S23.008,98.875,50,98.875S98.875,76.993,98.875,50S76.992,1.125,50,1.125z
	 M26.801,70.373H13.49V66.34h13.311V70.373z M26.801,65.131H13.49v-4.036h13.311V65.131z M26.801,59.887H13.49v-4.036h13.311V59.887
	z M26.801,54.641H13.49v-4.033h13.311V54.641z M26.801,49.396H13.49v-4.033h13.311V49.396z M41.729,70.373H28.416V66.34h13.313
	V70.373z M41.729,65.131H28.416v-4.036h13.313V65.131z M41.729,59.887H28.416v-4.036h13.313V59.887z M56.656,70.373H43.344V66.34
	h13.313V70.373z M56.656,65.131H43.344v-4.036h13.313V65.131z M56.656,59.887H43.344v-4.036h13.313V59.887z M56.656,54.641H43.344
	v-4.033h13.313V54.641z M56.656,49.396H43.344v-4.033h13.313V49.396z M56.656,44.151H43.344v-4.034h13.313V44.151z M56.656,38.908
	H43.344v-4.035h13.313V38.908z M71.582,70.373H58.27V66.34h13.313V70.373z M71.582,65.131H58.27v-4.036h13.313V65.131z
	 M71.582,59.887H58.27v-4.036h13.313V59.887z M71.582,54.641H58.27v-4.033h13.313V54.641z M71.582,49.396H58.27v-4.033h13.313
	V49.396z M86.51,70.373H73.197V66.34H86.51V70.373z M86.51,65.131H73.197v-4.036H86.51V65.131z M86.51,59.884H73.197V55.85H86.51
	V59.884z M86.51,54.641H73.197v-4.035H86.51V54.641z M86.51,49.396H73.197V45.36H86.51V49.396z M86.51,44.15H73.197v-4.033H86.51
	V44.15z M86.51,38.905H73.197v-4.033H86.51V38.905z M73.197,33.661v-4.034H86.51v4.034H73.197z"/>
</svg>
